Sources/FrostedUI/Resources/Icons.xcassets/mobilePhone20.imageset/mobile-phone-20.svg

<svg width="20" height="20" viewBox="0 0 20 20" fill="none" xmlns="http://www.w3.org/2000/svg" data-fui-icon="true">
  <path
    d="M12.709 0.708008C14.5035 0.708381 15.9588 2.16349 15.959 3.95801V16.041C15.959 17.8357 14.5036 19.2906 12.709 19.291H7.29199C5.49708 19.291 4.04199 17.836 4.04199 16.041V3.95801C4.04219 2.16325 5.49719 0.708008 7.29199 0.708008H12.709ZM7.29199 2.20801C6.32562 2.20801 5.54219 2.99168 5.54199 3.95801V16.041C5.54199 17.0075 6.32549 17.791 7.29199 17.791H12.709C13.6752 17.7906 14.459 17.0073 14.459 16.041V3.95801C14.4588 2.9919 13.6751 2.20838 12.709 2.20801H7.29199ZM11.875 15.291C12.2888 15.2912 12.6246 15.6272 12.625 16.041C12.625 16.4551 12.289 16.7908 11.875 16.791H8.125C7.71094 16.7908 7.375 16.4551 7.375 16.041C7.37537 15.6272 7.71117 15.2912 8.125 15.291H11.875Z"
    fill="currentColor"
  />
</svg>

<svg xmlns="http://www.w3.org/2000/svg" width="20" height="20" fill="none" data-fui-icon="true" viewBox="0 0 20 20"><path fill="currentColor" d="M12.709.708a3.25 3.25 0 0 1 3.25 3.25v12.083a3.25 3.25 0 0 1-3.25 3.25H7.292a3.25 3.25 0 0 1-3.25-3.25V3.958a3.25 3.25 0 0 1 3.25-3.25zm-5.417 1.5a1.75 1.75 0 0 0-1.75 1.75v12.083c0 .966.783 1.75 1.75 1.75h5.417a1.75 1.75 0 0 0 1.75-1.75V3.958a1.75 1.75 0 0 0-1.75-1.75zm4.583 13.083a.75.75 0 0 1 0 1.5h-3.75a.75.75 0 0 1 0-1.5z"/></svg>
